icons/svg/calendar.svg

<!-- Generated by IcoMoon.io -->
<svg version="1.1" xmlns="http://www.w3.org/2000/svg" width="48" height="48" viewBox="0 0 48 48">
<title>Calendar</title>
<path d="M40 10h-2v-4h-4v4h-20v-4h-4v4h-2c-1.105 0-2 0.895-2 2v0 28c0 1.105 0.895 2 2 2v0h32c1.105 0 2-0.895 2-2v0-28c0-1.105-0.895-2-2-2v0zM38 38h-28v-22h28z"></path>
<path d="M28 20h6v6h-6v-6z"></path>
</svg>

<svg xmlns="http://www.w3.org/2000/svg" width="48" height="48" viewBox="0 0 48 48">
  <path d="M40 10h-2V6h-4v4H14V6h-4v4H8a2 2 0 0 0-2 2v28a2 2 0 0 0 2 2h32a2 2 0 0 0 2-2V12a2 2 0 0 0-2-2zm-2 28H10V16h28z"/>
  <path d="M28 20h6v6h-6v-6z"/>
</svg>
